svgs/regular/money-bill-wave.svg

<svg xmlns="http://www.w3.org/2000/svg" viewBox="0 0 576 512"><!--! Font Awesome Pro 6.2.0 by @fontawesome - https://fontawesome.com License - https://fontawesome.com/license (Commercial License) Copyright 2022 Fonticons, Inc. --><path d="M208 256C208 202.1 243.8 160 288 160C332.2 160 368 202.1 368 256C368 309 332.2 352 288 352C243.8 352 208 309 208 256zM0 421.5V113C0 88.79 25.38 72.73 48.35 79.04C128.2 100.1 208.1 80.61 288 60.25C374.9 38.1 461.8 15.95 548.7 48.26C565.8 54.6 576 71.96 576 90.5V398.1C576 423.2 550.6 439.3 527.7 432.1C447.8 411 367.9 431.4 288 451.7C201.1 473.9 114.2 496 27.29 463.7C10.21 457.4 0 440 0 421.5V421.5zM279.2 404.4C335.1 390.1 398.6 373.9 464.5 375.7C468.6 344.3 495.5 320 528 320V144C492.7 144 464.1 115.4 464 80.14C417 78.44 367.2 89.66 310.3 104.1C305.9 105.2 301.4 106.4 296.8 107.6C240.9 121.9 177.4 138.1 111.5 136.3C107.4 167.7 80.53 192 48 192V368C83.3 368 111.9 396.6 112 431.9C158.1 433.6 208.8 422.3 265.7 407.9C270.1 406.8 274.6 405.6 279.2 404.4H279.2z"/></svg>

<svg xmlns="http://www.w3.org/2000/svg" viewBox="0 0 576 512"><!--! Font Awesome Pro 6.3.0 by @fontawesome - https://fontawesome.com License - https://fontawesome.com/license (Commercial License) Copyright 2023 Fonticons, Inc. --><path d="M265.7 407.9c4.5-1.1 9-2.3 13.5-3.4l0 0c55.9-14.3 119.4-30.6 185.3-28.7c4.1-31.4 30.9-55.7 63.5-55.7V144c-35.3 0-63.9-28.6-64-63.9c-47-1.7-96.8 9.5-153.7 24c-4.5 1.1-9 2.3-13.5 3.5l0 0c-55.9 14.3-119.4 30.6-185.3 28.7C107.4 167.7 80.5 192 48 192V368c35.3 0 63.9 28.6 64 63.9c47 1.7 96.8-9.5 153.7-24zM0 421.5V113C0 88.8 25.4 72.7 48.4 79C128.2 101 208.1 80.6 288 60.3c86.9-22.1 173.8-44.3 260.7-12C565.8 54.6 576 72 576 90.5V399c0 24.3-25.4 40.3-48.3 34C447.8 411 367.9 431.4 288 451.7c-86.9 22.1-173.8 44.3-260.7 12C10.2 457.4 0 440 0 421.5zM288 352c-44.2 0-80-43-80-96s35.8-96 80-96s80 43 80 96s-35.8 96-80 96z"/></svg>
